findly-builder/apps/searchassist/src/assets/images/exclamationCircle-Red.svg

<?xml version="1.0" encoding="UTF-8"?>
<svg width="11px" height="11px" viewBox="0 0 11 11" version="1.1" xmlns="http://www.w3.org/2000/svg" xmlns:xlink="http://www.w3.org/1999/xlink">
    <!-- Generator: Sketch 53.2 (72643) - https://sketchapp.com -->
    <title>exclamationCircleRed</title>
    <desc>Created with Sketch.</desc>
    <g id="Page-1" stroke="none" stroke-width="1" fill="none" fill-rule="evenodd">
        <path d="M2.55803571,1.26116071 C3.34821824,0.801336987 4.20981676,0.571428571 5.14285714,0.571428571 C6.07589752,0.571428571 6.93637999,0.801336987 7.72433036,1.26116071 C8.51228073,1.72098444 9.13615842,2.34486213 9.59598214,3.1328125 C10.0558059,3.92076287 10.2857143,4.78124533 10.2857143,5.71428571 C10.2857143,6.64732609 10.0558059,7.50780856 9.59598214,8.29575893 C9.13615842,9.0837093 8.51228073,9.70758699 7.72433036,10.1674107 C6.93637999,10.6272344 6.07589752,10.8571429 5.14285714,10.8571429 C4.20981676,10.8571429 3.3493343,10.6272344 2.56138393,10.1674107 C1.77343356,9.70758699 1.14955587,9.0837093 0.689732143,8.29575893 C0.229908415,7.50780856 0,6.64732609 0,5.71428571 C0,4.78124533 0.229908415,3.92076287 0.689732143,3.1328125 C1.14955587,2.34486213 1.7723175,1.72098444 2.55803571,1.26116071 Z M6,8.921875 L6,7.64955357 C6,7.58705326 5.97991092,7.53459843 5.93973214,7.4921875 C5.89955337,7.44977657 5.85044672,7.42857143 5.79241071,7.42857143 L4.50669643,7.42857143 C4.44866042,7.42857143 4.39732165,7.45089263 4.35267857,7.49553571 C4.30803549,7.54017879 4.28571429,7.59151757 4.28571429,7.64955357 L4.28571429,8.921875 C4.28571429,8.979911 4.30803549,9.03124978 4.35267857,9.07589286 C4.39732165,9.12053594 4.44866042,9.14285714 4.50669643,9.14285714 L5.79241071,9.14285714 C5.85044672,9.14285714 5.89955337,9.121652 5.93973214,9.07924107 C5.97991092,9.03683015 6,8.98437531 6,8.921875 Z M5.98660714,6.61830357 L6.10714286,2.45982143 C6.10714286,2.40624973 6.08482165,2.36607156 6.04017857,2.33928571 C5.99553549,2.30357125 5.9419646,2.28571429 5.87946429,2.28571429 L4.40625,2.28571429 C4.34374969,2.28571429 4.29017879,2.30357125 4.24553571,2.33928571 C4.20089263,2.36607156 4.17857143,2.40624973 4.17857143,2.45982143 L4.29241071,6.61830357 C4.29241071,6.66294665 4.31473192,6.70200876 4.359375,6.73549107 C4.40401808,6.76897338 4.45758897,6.78571429 4.52008929,6.78571429 L5.75892857,6.78571429 C5.82142888,6.78571429 5.87388372,6.76897338 5.91629464,6.73549107 C5.95870557,6.70200876 5.98214283,6.66294665 5.98660714,6.61830357 Z" id="exclamationCircleRed" fill="#FF001F"></path>
    </g>
</svg>

<svg width="11" height="11" xmlns="http://www.w3.org/2000/svg"><path d="M2.558 1.261c.79-.46 1.652-.69 2.585-.69s1.793.23 2.581.69a5.12 5.12 0 0 1 1.872 1.872c.46.788.69 1.648.69 2.581a5.03 5.03 0 0 1-.69 2.582 5.12 5.12 0 0 1-1.872 1.871 5.03 5.03 0 0 1-2.581.69 5.03 5.03 0 0 1-2.582-.69A5.12 5.12 0 0 1 .69 8.296 5.03 5.03 0 0 1 0 5.714c0-.933.23-1.793.69-2.581A5.128 5.128 0 0 1 2.558 1.26ZM6 8.921V7.65a.22.22 0 0 0-.06-.158.195.195 0 0 0-.148-.063H4.507a.212.212 0 0 0-.154.067.212.212 0 0 0-.067.154v1.272c0 .058.022.11.067.154a.212.212 0 0 0 .154.067h1.285a.195.195 0 0 0 .148-.064.22.22 0 0 0 .06-.157Zm-.013-2.303.12-4.158a.132.132 0 0 0-.067-.12.25.25 0 0 0-.16-.054H4.405a.25.25 0 0 0-.16.053.132.132 0 0 0-.067.12l.113 4.16c0 .044.023.083.067.116a.26.26 0 0 0 .161.05H5.76a.246.246 0 0 0 .157-.05.17.17 0 0 0 .07-.117Z" fill="#FF001F" fill-rule="evenodd"/></svg>
